image/why/icon-7.svg

<svg width="50" height="41" viewBox="0 0 50 41" fill="none" xmlns="http://www.w3.org/2000/svg">
<rect x="6.78906" y="8.22266" width="7.94882" height="11.9284" rx="1.24504" stroke="#2E2E2E" stroke-width="2"/>
<mask id="path-2-inside-1_7458_4554" fill="white">
<path d="M-0.171875 26.1632C-0.171875 25.0372 0.45849 24.0065 1.49187 23.5593C3.66887 22.6172 7.58194 21.1445 10.7718 21.1445C13.9617 21.1445 17.8748 22.6172 20.0518 23.5593C21.0852 24.0065 21.7155 25.0372 21.7155 26.1632V37.0626H-0.171875V26.1632Z"/>
</mask>
<path d="M21.7155 37.0626V39.0626H23.7155V37.0626H21.7155ZM-0.171875 37.0626H-2.17188V39.0626H-0.171875V37.0626ZM19.7155 26.1632V37.0626H23.7155V26.1632H19.7155ZM21.7155 35.0626H-0.171875V39.0626H21.7155V35.0626ZM1.82812 37.0626V26.1632H-2.17188V37.0626H1.82812ZM2.28621 25.3948C4.45887 24.4545 8.03459 23.1445 10.7718 23.1445V19.1445C7.12928 19.1445 2.87888 20.7798 0.697538 21.7238L2.28621 25.3948ZM10.7718 23.1445C13.5091 23.1445 17.0848 24.4545 19.2575 25.3948L20.8461 21.7238C18.6648 20.7798 14.4144 19.1445 10.7718 19.1445V23.1445ZM23.7155 26.1632C23.7155 24.2984 22.6638 22.5104 20.8461 21.7238L19.2575 25.3948C19.5065 25.5026 19.7155 25.776 19.7155 26.1632H23.7155ZM1.82812 26.1632C1.82812 25.776 2.03712 25.5026 2.28621 25.3948L0.697538 21.7238C-1.12014 22.5104 -2.17188 24.2984 -2.17188 26.1632H1.82812Z" fill="#2E2E2E" mask="url(#path-2-inside-1_7458_4554)"/>
<rect x="27.0469" y="1" width="10.3568" height="15.2996" rx="1.24504" stroke="#C63031" stroke-width="2"/>
<mask id="path-5-inside-2_7458_4554" fill="white">
<path d="M18.6484 23.0861C18.6484 21.9601 19.2796 20.9299 20.3091 20.4738C22.9084 19.3221 28.072 17.2969 32.241 17.2969C36.41 17.2969 41.5735 19.3221 44.1728 20.4738C45.2023 20.9299 45.8335 21.9601 45.8335 23.0861V37.0678H18.6484V23.0861Z"/>
</mask>
<path d="M45.8335 37.0678V39.0678H47.8335V37.0678H45.8335ZM18.6484 37.0678H16.6484V39.0678H18.6484V37.0678ZM43.8335 23.0861V37.0678H47.8335V23.0861H43.8335ZM45.8335 35.0678H18.6484V39.0678H45.8335V35.0678ZM20.6484 37.0678V23.0861H16.6484V37.0678H20.6484ZM21.1193 22.3024C23.724 21.1483 28.5389 19.2969 32.241 19.2969V15.2969C27.605 15.2969 22.0928 17.496 19.4989 18.6453L21.1193 22.3024ZM32.241 19.2969C35.943 19.2969 40.7579 21.1483 43.3626 22.3024L44.983 18.6453C42.3892 17.496 36.8769 15.2969 32.241 15.2969V19.2969ZM47.8335 23.0861C47.8335 21.218 46.7797 19.4413 44.983 18.6453L43.3626 22.3024C43.6249 22.4186 43.8335 22.7023 43.8335 23.0861H47.8335ZM20.6484 23.0861C20.6484 22.7023 20.857 22.4186 21.1193 22.3024L19.4989 18.6453C17.7022 19.4413 16.6484 21.218 16.6484 23.0861H20.6484Z" fill="#C63031" mask="url(#path-5-inside-2_7458_4554)"/>
</svg>

<svg width="50" height="41" fill="none" xmlns="http://www.w3.org/2000/svg"><rect x="6.789" y="8.223" width="7.949" height="11.928" rx="1.245" stroke="#2E2E2E" stroke-width="2"/><mask id="a" fill="#fff"><path d="M-.172 26.163c0-1.126.63-2.157 1.664-2.604 2.177-.942 6.09-2.415 9.28-2.415 3.19 0 7.103 1.473 9.28 2.415 1.033.447 1.663 1.478 1.663 2.604v10.9H-.172v-10.9Z"/></mask><path d="M21.715 37.063v2h2v-2h-2Zm-21.887 0h-2v2h2v-2Zm19.887-10.9v10.9h4v-10.9h-4Zm2 8.9H-.172v4h21.887v-4Zm-19.887 2v-10.9h-4v10.9h4Zm.458-11.668c2.173-.94 5.749-2.25 8.486-2.25v-4c-3.643 0-7.893 1.635-10.074 2.579l1.588 3.67Zm8.486-2.25c2.737 0 6.313 1.31 8.486 2.25l1.588-3.671c-2.181-.944-6.432-2.58-10.074-2.58v4Zm12.943 3.018c0-1.865-1.051-3.653-2.869-4.44l-1.588 3.672c.248.108.457.381.457.768h4Zm-21.887 0c0-.387.21-.66.458-.768L.698 21.724c-1.818.786-2.87 2.574-2.87 4.44h4Z" fill="#2E2E2E" mask="url(#a)"/><rect x="27.047" y="1" width="10.357" height="15.3" rx="1.245" stroke="#C63031" stroke-width="2"/><mask id="b" fill="#fff"><path d="M18.648 23.086c0-1.126.632-2.156 1.661-2.612 2.6-1.152 7.763-3.177 11.932-3.177 4.169 0 9.333 2.025 11.932 3.177 1.03.456 1.66 1.486 1.66 2.612v13.982H18.649V23.086Z"/></mask><path d="M45.834 37.068v2h2v-2h-2Zm-27.186 0h-2v2h2v-2Zm25.186-13.982v13.982h4V23.086h-4Zm2 11.982H18.648v4h27.186v-4Zm-25.186 2V23.086h-4v13.982h4Zm.471-14.766c2.605-1.154 7.42-3.005 11.122-3.005v-4c-4.636 0-10.148 2.199-12.742 3.348l1.62 3.657Zm11.122-3.005c3.702 0 8.517 1.851 11.122 3.005l1.62-3.657c-2.594-1.149-8.106-3.348-12.742-3.348v4Zm15.593 3.79c0-1.869-1.054-3.646-2.851-4.442l-1.62 3.657c.262.117.47.4.47.784h4Zm-27.186 0c0-.385.209-.668.471-.785l-1.62-3.657c-1.797.796-2.85 2.573-2.85 4.441h4Z" fill="#C63031" mask="url(#b)"/></svg>
